X:538
T:
S:Efter »Florsen» i Burs.
R:vals
O:Gotland, Burs
M:3/4
L:1/8
K:F
f2|(fc)(Ac)(ag)|f4 c2|(fc)(Ac)(ag)|f4 c2|d2 (d^c) d2|b4 (ge)|
c2 (c=B) c2|a4 f2|(fc)(Ac)(ag)|f4 c2|(fc)(Ac)(ag)|f4 c2|
d2 (d^c) d2|b4 (ge)|c2 (ce)(ge)|f4::c2|a4 f2|c4 A2|(BA) (Bc)(dB)|
G6|b4 g2|e4 c2|d2 (df)(eg)|(fe)(fa) c2|a4 f2|c4 A2|(BA)(Bc)(dB)|
G6|b4 g2|e4 c2|dcdfeg|f4:|

